src/images/crypto-icon-svg/bts.svg

<svg xmlns="http://www.w3.org/2000/svg" width="32" height="32" viewBox="0 0 32 32">
  <g fill="none" fill-rule="evenodd">
    <circle cx="16" cy="16" r="16" fill="#35BAEB"/>
    <path fill="#FFF" d="M11,13.2023917 L15.2098878,17.5462723 C15.041674,17.7992421 14.9223379,18.0895258 14.8659303,18.4026254 L11,18.4026254 L11,13.2023917 Z M11,12.0337335 L11,5 L16.6061302,10.1389643 L16.6061302,16.6070382 C16.3026886,16.6652411 16.0213591,16.7883755 15.7761925,16.9619432 L11,12.0337335 Z M21.5276148,22.8964224 L18.8032484,20.0853446 C18.9714622,19.8323748 19.0907983,19.542091 19.1472059,19.2289915 L23,19.2289915 C22.910656,20.6295852 22.3704013,21.9030961 21.5276148,22.8964224 Z M20.9613101,23.4807515 C19.9986242,24.3503623 18.7643965,24.9078123 17.407006,25 L17.407006,21.0245787 C17.7104475,20.9663758 17.9917771,20.8432414 18.2369437,20.6696737 L20.9613101,23.4807515 Z M11.0131362,19.2289915 L14.8659303,19.2289915 C14.9223379,19.542091 15.041674,19.8323748 15.2098878,20.0853446 L12.4855214,22.8964224 C11.6427349,21.9030961 11.1024802,20.6295852 11.0131362,19.2289915 Z M23,18.4026254 L19.1472059,18.4026254 C19.0907983,18.0895258 18.9714622,17.7992421 18.8032484,17.5462723 L21.5276148,14.7351944 C22.3704013,15.7285208 22.910656,17.0020316 23,18.4026254 Z M13.0518261,23.4807515 L15.7761925,20.6696737 C16.0213591,20.8432414 16.3026886,20.9663758 16.6061302,21.0245787 L16.6061302,25 C15.2487397,24.9078123 14.014512,24.3503623 13.0518261,23.4807515 Z M20.9613101,14.1508654 L18.2369437,16.9619432 C17.9917771,16.7883755 17.7104475,16.6652411 17.407006,16.6070382 L17.407006,12.6316169 C18.7643965,12.7238045 19.9986242,13.2812546 20.9613101,14.1508654 Z"/>
  </g>
</svg>

<svg xmlns="http://www.w3.org/2000/svg" width="32" height="32"><g fill="none" fill-rule="evenodd"><circle cx="16" cy="16" r="16" fill="#35BAEB"/><path fill="#FFF" d="M11 13.202l4.21 4.344a2.274 2.274 0 0 0-.344.857H11v-5.2zm0-1.168V5l5.606 5.139v6.468a2.13 2.13 0 0 0-.83.355L11 12.034zm10.528 10.862l-2.725-2.81c.168-.254.288-.544.344-.857H23a6.276 6.276 0 0 1-1.472 3.667zm-.567.585A5.887 5.887 0 0 1 17.407 25v-3.975a2.13 2.13 0 0 0 .83-.355l2.724 2.81zm-9.948-4.252h3.853c.056.313.176.603.344.856l-2.724 2.811a6.276 6.276 0 0 1-1.473-3.667zM23 18.403h-3.853a2.274 2.274 0 0 0-.344-.857l2.725-2.81A6.276 6.276 0 0 1 23 18.402zm-9.948 5.078l2.724-2.811c.245.173.527.296.83.355V25a5.887 5.887 0 0 1-3.554-1.52zm7.91-9.33l-2.725 2.81a2.13 2.13 0 0 0-.83-.354v-3.975a5.887 5.887 0 0 1 3.554 1.519z"/></g></svg>
